icon/cg/battery-full.svg

<svg viewBox="0 0 24 24" fill="none" xmlns="http://www.w3.org/2000/svg" height="1em" width="1em">
  <path d="M6 15C5.44772 15 5 14.5523 5 14V10C5 9.44772 5.44772 9 6 9H17C17.5523 9 18 9.44772 18 10V14C18 14.5523 17.5523 15 17 15H6Z" fill="currentColor"/>
  <path fill-rule="evenodd" clip-rule="evenodd" d="M18 6H5C3.34315 6 2 7.34315 2 9V15C2 16.6569 3.34315 18 5 18H18C19.6569 18 21 16.6569 21 15C21.5523 15 22 14.5523 22 14V10C22 9.44772 21.5523 9 21 9C21 7.34315 19.6569 6 18 6ZM18 8H5C4.44772 8 4 8.44772 4 9V15C4 15.5523 4.44772 16 5 16H18C18.5523 16 19 15.5523 19 15V9C19 8.44772 18.5523 8 18 8Z" fill="currentColor"/>
</svg>

<svg width="24" height="24" fill="none" xmlns="http://www.w3.org/2000/svg"><path d="M6 15a1 1 0 0 1-1-1v-4a1 1 0 0 1 1-1h11a1 1 0 0 1 1 1v4a1 1 0 0 1-1 1H6Z" fill="currentColor"/><path fill-rule="evenodd" clip-rule="evenodd" d="M18 6H5a3 3 0 0 0-3 3v6a3 3 0 0 0 3 3h13a3 3 0 0 0 3-3 1 1 0 0 0 1-1v-4a1 1 0 0 0-1-1 3 3 0 0 0-3-3Zm0 2H5a1 1 0 0 0-1 1v6a1 1 0 0 0 1 1h13a1 1 0 0 0 1-1V9a1 1 0 0 0-1-1Z" fill="currentColor"/></svg>
